X:290
T: Der Nachtigall Klage (3-92), S. 254
N: P1065
O: Lothringen
S: PINCK, Louis: Verklingende Weisen, Bd3, Metz 1933]
R: Eheverdru]
M: 3/4
L: 1/8
K: G
G2 | G3AG2 | F2F2F2 | B3AG2 | A4
G2 | B3AB2 | c2B2A2 | G3AF2 | G4

@@@ Tune index: 7840
